X: 1
T: Sliabh Russell
T: Slieve Russell
C: Trad.
B: Christine Martin "Ho-Ro-Gheallaidh" "Session Tunes for Scottish Fiddlers" v.3 2008
M: 6/8
L: 1/8
R: Jig
Z: Barney
K: A Dorian
|: "Am"eAA "G"Bcd | "Am"eaf "Em"ged |\
"Em"edB  "F"cBA | "G"BAG [1 ABd :[2 "Am"A3 |:\
"Am"eaa "Em"efg | "Am"agf "D"gfd |
"Am"eaa "Em"efg | "D"afd "Em"e3 |\
"Am"eaa "Em"efg | "Am"agf "D"gfd |\
"Em"edB  "F"cBA | "G"BAG [1 "D"ABd :|[2 "Am"A3 :|
